X:1
T:Duluth, 75.75.77.75
T:Duluth, 75.75.77.75
T:Charles J. Butler, 1898
T:Public Domain Courtesy of the Cyber Hymnal™
C:Charles J. Butler, 1898
Z:Public Domain
Z:Courtesy of the Cyber Hymnal™
%%score ( 1 2 ) ( 3 4 )
L:1/8
Q:1/4=95
M:3/4
K:G
V:1 treble 
V:2 treble 
V:3 bass 
V:4 bass 
V:1
 [GB]>[GB] | [Gc]3 [Gc] [GB]>[G^A] | [GB]4 [FA]2 | [FA]4 [FA]>[FB] | G4 [GB]>[GB] | %5
 [Gc]3 [Gc] [GB]>[G^A] | [GB]4 [Ge]2 | [Gd]4 [GB]>[DA] | [DG]4 [FA]>[FA] | [FA]3 [Fe] [Gd]>[G^c] | %10
 [Gd]4 [Fc]>[Fc] | [Fc]3 [Ac] [GB]>[Gc] | [Gd]4 [Ge]>[Ge] | [Ge]3 [Ge] [Gd]>[G^c] | [Gd]4 [GB]2 | %15
 [FA]4 [GB]>[DA] | [DG]4 |] %17
V:2
 x2 | x6 | x6 | x6 | G4 x2 | x6 | x6 | x6 | x6 | x6 | x6 | x6 | x6 | x6 | x6 | x6 | x4 |] %17
V:3
 [G,D]>[G,D] | [G,E]3 [G,E] [G,D]>[G,^C] | [G,D]4 [D,C]2 | [D,C]4 [D,C]>[D,D] | %4
 [G,B,]4 [G,D]>[G,D] | [G,E]3 [G,E] [G,D]>[G,C] | [G,D]4 [C,C]2 | [D,B,]4 [D,D]>[D,C] | %8
 [G,,B,]4 [D,D]>[D,D] | [D,D]3 [D,C] [G,B,]>[G,^A,] | [G,B,]4 [A,D]>[A,D] | %11
 [D,D]3 [F,D] [G,D]>[A,D] | [B,D]4 C>C | [C,C]3 [E,C] [G,B,]>[G,^A,] | [G,B,]4 [G,D]2 | %15
 [D,D]4 [D,D]>[D,C] | [G,,G,B,]4 |] %17
V:4
 x2 | x6 | x6 | x6 | x6 | x6 | x6 | x6 | x6 | x6 | x6 | x6 | x4 C>C | x6 | x6 | x6 | x4 |] %17

